X:1
T:Title
%%score { ( 1 3 ) | ( 2 4 ) }
L:1/8
Q:1/4=100
M:4/4
K:F
V:1 treble nm="Grand Piano"
V:3 treble 
V:2 bass 
V:4 bass 
V:1
 F3 A C2 F2 | A2 [Gc]2 [Ff]4 | d2 A2 B2 [DG]2 | [CE]8 | [=B,F]2 [B,G]2 [CE]2 [Cc]2 | %5
w: C.~E.~Kettle * * *|||||
 [F=B]2 [Fd]2 [EG]4 | c2 c2 e2 d2 | [Ec]8 | [Af]2 cB A2 F2 | d2 BA G4 | z2 .G2 z4 | z2 F2 z4 | %12
w: |||||||
 [Cc]2 .[DB]2 [A,CF]2 [G,B,E]2 | [F,A,F]8 | C2 DE F2 C2 | D2 F2 C4 | A2 [GA]2 [FA]2 [F=B]2 | %17
w: |||||
 [Ec]8 | F2 c2 A2 F2 | d2 A2 B4 | z EFB [CFA]2 [B,EG]2 | [A,F]8 |] %22
w: |||||
V:2
 F,3 A, C,2 F,2 | [F,CF]2 [E,C]2 [D,D]4 | [B,DF]2 [C_E^F]2 [G,DG]2[K:bass] [B,,B,]2 | [C,G,]8 | %4
 [D,G,]2 [G,,G,]2 [C,G,]2 [E,G,]2 | [D,G,]2 [=B,,G,]2 [C,C]4 | %6
 [A,CE]2 [_A,C^F]2 [G,CG]2 [G,=B,=F]2 | [C,C]8 | [F,C]2 [E,C]2 [F,CF]2 [A,C]2 | %9
 [B,F]2 [G,DF]2 [CE]4 | [G,B,D]2 [B,,B,]2 [C,G,C]2 [D,G,B,]2 | [E,G,C]2 .[D,F,A,]2 [C,G,C]4 | %12
 [A,,F,]2 z G C,2 C,2 | F,,8 | C,2 D,E, F,2 C,2 | [B,,F,B,]2 [D,F,B,]2 [F,A,]4 | %16
 [F,CF]2 [E,^C]2 [D,D]2 [D,G,]2 | [C,G,]8 | F,2 C2 A,2 F,2 | [B,F]2 [^F,C_E]2 [G,B,D]4 | %20
 [B,,B,]2 [D,F,B,]2 C,2 C,2 | F,8 |] %22
V:3
 x8 | x8 | x8 | x8 | x8 | x8 | x8 | x8 | z2 G2 z4 | x8 | B2 D-[DF] E2 D2 | D2 z =B, E4 | x8 | x8 | %14
 x8 | x8 | x8 | x8 | x8 | x8 | D2 z2 z4 | x8 |] %22
V:4
 x8 | x8 | x6[K:bass] x2 | x8 | x8 | x8 | x8 | x8 | x8 | x8 | x8 | x8 | z2 [B,,G,]2 z4 | x8 | x8 | %15
 x8 | x8 | x8 | x8 | x8 | x8 | x8 |] %22

